packages/amis-editor-core/src/icons/dialog.svg

<?xml version="1.0" standalone="no"?><!DOCTYPE svg PUBLIC "-//W3C//DTD SVG 1.1//EN" "http://www.w3.org/Graphics/SVG/1.1/DTD/svg11.dtd"><svg t="1644810980181" class="icon" viewBox="0 0 1155 1024" version="1.1" xmlns="http://www.w3.org/2000/svg" p-id="7397" xmlns:xlink="http://www.w3.org/1999/xlink" width="225.5859375" height="200"><defs><style type="text/css"></style></defs><path d="M1076.511716 315.0766h-236.30745V78.76915a78.76915 78.76915 0 0 0-78.76915-78.76915H78.76915a78.76915 78.76915 0 0 0-78.76915 78.76915v420.102133a78.76915 78.76915 0 0 0 78.76915 78.76915h14.939882l-9.29476 23.368181A78.76915 78.76915 0 0 0 157.5383 708.92235a76.87869 76.87869 0 0 0 38.229294-9.977426L315.0766 632.778838V813.947883a78.76915 78.76915 0 0 0 78.76915 78.76915h347.188157l218.453109 121.304491A76.87869 76.87869 0 0 0 997.742566 1023.99895a78.76915 78.76915 0 0 0 73.150284-107.913736l-9.294759-23.368181H1076.511716a78.76915 78.76915 0 0 0 78.76915-78.76915V393.84575a78.76915 78.76915 0 0 0-78.76915-78.76915z m-761.435116 78.76915v148.873693L157.5383 630.1532l52.512767-131.281917H78.76915V78.76915h682.665966v236.30745H393.84575a78.76915 78.76915 0 0 0-78.76915 78.76915z m761.435116 420.102133h-131.281916l52.512766 131.281917-236.30745-131.281917H393.84575V393.84575h682.665966v420.102133zM498.871283 551.38405h472.6149a39.384575 39.384575 0 0 0 0-78.76915H498.871283a39.384575 39.384575 0 0 0 0 78.76915z m0 157.5383h472.6149a39.384575 39.384575 0 0 0 0-78.76915H498.871283a39.384575 39.384575 0 0 0 0 78.76915z" p-id="7398"></path></svg>

<svg class="icon" viewBox="0 0 1155 1024" xmlns="http://www.w3.org/2000/svg" width="225.586" height="200"><path d="M1076.512 315.077H840.204V78.769A78.77 78.77 0 0 0 761.435 0H78.77A78.77 78.77 0 0 0 0 78.77v420.1a78.77 78.77 0 0 0 78.77 78.77h14.939l-9.295 23.368a78.77 78.77 0 0 0 73.124 107.913 76.879 76.879 0 0 0 38.23-9.977l119.309-66.166v181.169a78.77 78.77 0 0 0 78.769 78.769h347.188l218.453 121.305a76.879 76.879 0 0 0 38.256 9.977 78.77 78.77 0 0 0 73.15-107.914l-9.295-23.368h14.914a78.77 78.77 0 0 0 78.769-78.77V393.847a78.77 78.77 0 0 0-78.77-78.77zm-761.435 78.769v148.873l-157.539 87.434 52.513-131.282H78.77V78.77h682.666v236.308h-367.59a78.77 78.77 0 0 0-78.768 78.769zm761.435 420.102H945.23l52.513 131.282-236.308-131.282h-367.59V393.846h682.667v420.102zm-577.64-262.564h472.614a39.385 39.385 0 0 0 0-78.77H498.871a39.385 39.385 0 0 0 0 78.77zm0 157.538h472.614a39.385 39.385 0 0 0 0-78.769H498.871a39.385 39.385 0 0 0 0 78.77z"/></svg>
